src/assets/img/technical-support.svg

<svg width="30" height="30" viewBox="0 0 30 30" fill="none" xmlns="http://www.w3.org/2000/svg">
<g clip-path="url(#clip0)">
<path d="M5.27641 23.2001C4.85641 23.2001 4.45267 23.305 4.09447 23.5018C2.20757 21.083 1.17188 18.0782 1.17188 15C1.17188 7.37503 7.37503 1.17188 15 1.17188C15.927 1.17188 16.8535 1.26411 17.7539 1.44608C18.0707 1.51016 18.3801 1.30508 18.4442 0.987854C18.5083 0.670624 18.3032 0.361633 17.986 0.297318C17.0094 0.100021 16.0048 0 15 0C10.9934 0 7.22649 1.56029 4.39339 4.39339C1.56029 7.22649 0 10.9934 0 15C0 18.3703 1.14441 21.6593 3.22792 24.296C2.95967 24.6968 2.81548 25.1678 2.81548 25.6611C2.81548 26.3184 3.07159 26.9364 3.53645 27.401C4.00108 27.8659 4.61906 28.122 5.27641 28.122C5.93376 28.122 6.55174 27.8659 7.0166 27.401C7.48146 26.9364 7.73735 26.3182 7.73735 25.6609C7.73735 25.0037 7.48146 24.3855 7.0166 23.9209C6.55174 23.456 5.93376 23.2001 5.27641 23.2001ZM6.18782 26.5725C5.94452 26.816 5.62065 26.9501 5.27641 26.9501C4.93217 26.9501 4.60854 26.816 4.36501 26.5725C4.12148 26.329 3.98735 26.0053 3.98735 25.6611C3.98735 25.3166 4.12148 24.993 4.36501 24.7495C4.60831 24.5059 4.93217 24.372 5.27641 24.372C5.62065 24.372 5.94429 24.5061 6.18782 24.7495C6.43135 24.993 6.56548 25.3166 6.56548 25.6611C6.56548 26.0053 6.43135 26.329 6.18782 26.5725Z" fill="#666366"/>
<path d="M26.7716 5.70328C27.4086 4.7477 27.3063 3.44124 26.4637 2.59872C25.9989 2.13409 25.3809 1.87798 24.7236 1.87798C24.0662 1.87798 23.4482 2.13409 22.9834 2.59872C22.5185 3.06358 22.2626 3.68156 22.2626 4.33891C22.2626 4.99626 22.5185 5.61424 22.9834 6.0791C23.4482 6.54396 24.0662 6.79985 24.7236 6.79985C25.1436 6.79985 25.5473 6.69502 25.9055 6.49818C27.7924 8.91724 28.8281 11.9218 28.8281 15C28.8281 22.625 22.6249 28.8281 15 28.8281C14.0822 28.8281 13.1643 28.7377 12.2724 28.5592C11.9552 28.4958 11.6464 28.7016 11.5828 29.0188C11.5194 29.3362 11.7251 29.6448 12.0424 29.7084C13.0098 29.9018 14.005 30 15 30C19.0065 30 22.7735 28.4397 25.6066 25.6066C28.4397 22.7735 30 19.0066 30 15C30 11.6295 28.8553 8.34023 26.7716 5.70328ZM23.8121 5.25055C23.5686 5.00702 23.4345 4.68338 23.4345 4.33891C23.4345 3.99467 23.5686 3.67104 23.8121 3.42751C24.0554 3.18398 24.3793 3.04985 24.7236 3.04985C25.0678 3.04985 25.3917 3.18398 25.6352 3.42751C26.1376 3.93013 26.1376 4.74792 25.6352 5.25055C25.3917 5.49385 25.0678 5.62798 24.7236 5.62798C24.3791 5.62798 24.0554 5.49385 23.8121 5.25055Z" fill="#666366"/>
<path d="M12.582 25.0781C12.582 25.4018 12.8446 25.6641 13.168 25.6641H16.8317C17.1553 25.6641 17.4176 25.4018 17.4176 25.0781V23.9422C18.188 23.7348 18.9246 23.4295 19.6167 23.0308L20.4187 23.8328C20.5286 23.9426 20.6776 24.0044 20.8332 24.0044C20.9884 24.0044 21.1376 23.9426 21.2475 23.8326L23.8371 21.2411C24.0657 21.0123 24.0657 20.6413 23.8371 20.4126L23.036 19.6115C23.4347 18.9194 23.74 18.1828 23.9474 17.4124H25.079C25.4026 17.4124 25.6649 17.1501 25.6649 16.8265V13.1628C25.6649 12.8391 25.4026 12.5768 25.079 12.5768H23.9472C23.7398 11.8066 23.4347 11.0701 23.036 10.378L23.8327 9.58122C23.9426 9.47136 24.0044 9.32213 24.0044 9.16672C24.0042 9.01131 23.9424 8.86208 23.8325 8.75221L21.2409 6.16264C21.0122 5.93399 20.6412 5.93399 20.4123 6.16287L19.6167 6.95869C18.9246 6.55998 18.188 6.25465 17.4176 6.04729V4.92188C17.4176 4.59824 17.1553 4.33594 16.8317 4.33594H13.168C12.8446 4.33594 12.582 4.59824 12.582 4.92188V6.04752C11.8118 6.25465 11.0753 6.55998 10.3832 6.95869L9.58734 6.16287C9.35869 5.93422 8.98767 5.93399 8.75879 6.16264L6.16739 8.75244C6.0573 8.8623 5.9955 9.01131 5.9955 9.16672C5.9955 9.32213 6.0573 9.47136 6.16716 9.58122L6.9639 10.378C6.56519 11.0701 6.25986 11.8064 6.05249 12.5768H4.92296C4.59932 12.5768 4.33702 12.8391 4.33702 13.1625L4.33496 16.8262C4.33473 16.9817 4.39653 17.1309 4.50639 17.2408C4.61626 17.3506 4.76526 17.4124 4.9209 17.4124H6.05249C6.25986 18.1828 6.56519 18.9194 6.9639 19.6115L6.16281 20.4126C5.93416 20.6413 5.93393 21.0123 6.16281 21.2411L8.75238 23.8326C8.86224 23.9424 9.01125 24.0044 9.16666 24.0044H9.16689C9.3223 24.0044 9.4713 23.9426 9.58116 23.8328L10.3829 23.0308C11.0753 23.4295 11.8118 23.7348 12.582 23.9422V25.0781ZM10.6127 21.7985C10.3809 21.6486 10.0758 21.6811 9.88031 21.8763L9.16689 22.5897L7.40564 20.8271L8.11838 20.1141C8.31361 19.9189 8.34612 19.6138 8.1962 19.3819C7.66496 18.5598 7.29143 17.6587 7.08635 16.7033C7.02821 16.4335 6.78972 16.2405 6.51346 16.2405H5.50707L5.50844 13.7487H6.51346C6.78972 13.7487 7.02821 13.556 7.08635 13.2859C7.29143 12.3308 7.66496 11.4297 8.1962 10.6075C8.34612 10.3757 8.31361 10.0706 8.11838 9.87534L7.41022 9.16695L9.17284 7.4057L9.88031 8.1134C10.0758 8.30864 10.3806 8.34091 10.6127 8.19122C11.4346 7.65999 12.3358 7.28645 13.2911 7.08138C13.561 7.02324 13.7539 6.78452 13.7539 6.50848V5.50781H16.2457V6.50826C16.2457 6.78452 16.4385 7.02324 16.7085 7.08115C17.6637 7.28645 18.565 7.65976 19.3869 8.19099C19.6188 8.34091 19.9239 8.30864 20.1191 8.11317L20.8268 7.4057L22.5894 9.16695L21.8813 9.87511C21.6858 10.0706 21.6535 10.3757 21.8035 10.6075C22.3347 11.4297 22.708 12.3308 22.9133 13.2859C22.9712 13.556 23.2099 13.7487 23.4862 13.7487H24.493V16.2405H23.4862C23.2099 16.2405 22.9714 16.4335 22.9133 16.7033C22.7082 17.6585 22.3347 18.5598 21.8035 19.3817C21.6535 19.6138 21.686 19.9189 21.8813 20.1141L22.594 20.8269L20.8328 22.5895L20.1193 21.8763C19.9239 21.6808 19.6188 21.6486 19.3869 21.7985C18.5648 22.3297 17.6637 22.703 16.7085 22.9083C16.4385 22.9665 16.2457 23.205 16.2457 23.4812V24.4922H13.7539V23.4812C13.7539 23.2052 13.561 22.9665 13.2911 22.9083C12.336 22.7032 11.4349 22.3297 10.6127 21.7985Z" fill="#666366"/>
<path d="M19.8415 15C19.8415 12.3303 17.6697 10.1585 15 10.1585C12.3303 10.1585 10.1584 12.3303 10.1584 15C10.1584 17.6697 12.3303 19.8415 15 19.8415C17.6697 19.8415 19.8415 17.6697 19.8415 15ZM11.3303 15C11.3303 12.9765 12.9764 11.3303 15 11.3303C17.0235 11.3303 18.6696 12.9767 18.6696 15C18.6696 17.0233 17.0235 18.6697 15 18.6697C12.9764 18.6697 11.3303 17.0235 11.3303 15Z" fill="#666366"/>
<path d="M20.3953 2.21603C20.5495 2.21603 20.7006 2.15332 20.8095 2.04437C20.9185 1.93474 20.9812 1.78368 20.9812 1.62941C20.9812 1.47606 20.9187 1.32477 20.8095 1.21513C20.7006 1.10619 20.5495 1.04347 20.3953 1.04347C20.2405 1.04347 20.0902 1.10619 19.9812 1.21513C19.872 1.32477 19.8093 1.47537 19.8093 1.62941C19.8093 1.78413 19.872 1.93474 19.9812 2.04437C20.0902 2.15332 20.2405 2.21603 20.3953 2.21603Z" fill="#666366"/>
<path d="M9.63037 27.7945C9.47633 27.7945 9.32504 27.8572 9.21609 27.9662C9.10715 28.0751 9.04443 28.2264 9.04443 28.3804C9.04443 28.5352 9.10715 28.6858 9.21609 28.7947C9.32504 28.9037 9.47633 28.9664 9.63037 28.9664C9.78441 28.9664 9.9357 28.9037 10.0446 28.7947C10.1536 28.6858 10.2163 28.5345 10.2163 28.3804C10.2163 28.2264 10.1536 28.0751 10.0446 27.9662C9.9357 27.8572 9.78441 27.7945 9.63037 27.7945Z" fill="#666366"/>
</g>
<defs>
<clipPath id="clip0">
<rect width="30" height="30" fill="white"/>
</clipPath>
</defs>
</svg>

<svg width="30" height="30" fill="none" xmlns="http://www.w3.org/2000/svg"><g clip-path="url(#clip0)" fill="#666366"><path d="M5.276 23.2c-.42 0-.823.105-1.182.302A13.853 13.853 0 011.172 15C1.172 7.375 7.375 1.172 15 1.172c.927 0 1.854.092 2.754.274a.586.586 0 00.232-1.149A15.111 15.111 0 0015 0C10.993 0 7.226 1.56 4.393 4.393A14.902 14.902 0 000 15c0 3.37 1.144 6.66 3.228 9.296-.268.4-.413.872-.413 1.365 0 .657.257 1.275.721 1.74a2.444 2.444 0 001.74.721c.658 0 1.276-.256 1.74-.721.465-.465.721-1.083.721-1.74s-.256-1.276-.72-1.74a2.445 2.445 0 00-1.74-.72zm.912 3.373a1.28 1.28 0 01-.912.377 1.28 1.28 0 01-.911-.377 1.28 1.28 0 01-.378-.912c0-.344.134-.668.378-.912a1.28 1.28 0 01.911-.377c.345 0 .668.134.912.378.243.243.377.567.377.911 0 .344-.134.668-.377.912zm20.584-20.87a2.465 2.465 0 00-.308-3.104 2.445 2.445 0 00-1.74-.721c-.658 0-1.276.256-1.74.72a2.445 2.445 0 00-.721 1.74c0 .658.255 1.276.72 1.741.465.465 1.083.72 1.74.72.42 0 .824-.104 1.183-.3A13.854 13.854 0 0128.828 15c0 7.625-6.203 13.828-13.828 13.828-.918 0-1.836-.09-2.728-.269a.586.586 0 00-.23 1.15A15.16 15.16 0 0015 30c4.006 0 7.773-1.56 10.607-4.393A14.902 14.902 0 0030 15c0-3.37-1.145-6.66-3.228-9.297zm-2.96-.452a1.28 1.28 0 01-.378-.912c0-.344.135-.668.378-.911a1.28 1.28 0 01.912-.378 1.29 1.29 0 010 2.578 1.28 1.28 0 01-.912-.377z"/><path d="M12.582 25.078c0 .324.263.586.586.586h3.664a.586.586 0 00.586-.586v-1.136a9.177 9.177 0 002.199-.911l.802.802a.586.586 0 00.828 0l2.59-2.592a.586.586 0 000-.828l-.801-.802a9.177 9.177 0 00.911-2.199h1.132a.586.586 0 00.586-.585v-3.664a.586.586 0 00-.586-.586h-1.132a9.178 9.178 0 00-.911-2.199l.797-.797a.586.586 0 000-.829l-2.592-2.59a.586.586 0 00-.829 0l-.795.797a9.175 9.175 0 00-2.2-.912V4.922a.586.586 0 00-.585-.586h-3.664a.586.586 0 00-.586.586v1.126a9.166 9.166 0 00-2.199.91l-.796-.795a.586.586 0 00-.828 0l-2.592 2.59a.585.585 0 000 .828l.797.797a9.173 9.173 0 00-.912 2.199H4.923a.586.586 0 00-.586.585l-.002 3.664a.585.585 0 00.586.586h1.131a9.22 9.22 0 00.912 2.2l-.801.8a.586.586 0 000 .83l2.59 2.59a.586.586 0 00.829 0l.8-.801a9.185 9.185 0 002.2.911v1.136zm-1.97-3.28a.586.586 0 00-.732.078l-.713.714-1.761-1.763.712-.713a.586.586 0 00.078-.732 8.02 8.02 0 01-1.11-2.679.586.586 0 00-.573-.462H5.507l.001-2.492h1.005a.586.586 0 00.573-.463 8.022 8.022 0 011.11-2.678.586.586 0 00-.078-.733l-.708-.708 1.763-1.761.707.707c.196.196.5.228.733.078a8.017 8.017 0 012.678-1.11.586.586 0 00.463-.573v-1h2.492v1c0 .277.193.515.463.573a8.023 8.023 0 012.678 1.11c.232.15.537.118.732-.078l.708-.707 1.762 1.761-.708.708a.586.586 0 00-.078.732 8.027 8.027 0 011.11 2.679c.058.27.297.463.573.463h1.007v2.492h-1.007a.586.586 0 00-.573.462 8.02 8.02 0 01-1.11 2.679.586.586 0 00.078.732l.713.713-1.761 1.762-.714-.713a.586.586 0 00-.732-.078 8.025 8.025 0 01-2.678 1.11.586.586 0 00-.463.573v1.011h-2.492v-1.01a.586.586 0 00-.463-.574 8.023 8.023 0 01-2.678-1.11z"/><path d="M19.841 15A4.847 4.847 0 0015 10.159 4.847 4.847 0 0010.158 15 4.847 4.847 0 0015 19.841 4.847 4.847 0 0019.841 15zm-8.51 0A3.674 3.674 0 0115 11.33 3.674 3.674 0 0118.67 15 3.674 3.674 0 0115 18.67 3.674 3.674 0 0111.33 15zm9.064-12.784a.59.59 0 00.586-.587.59.59 0 00-.586-.586.589.589 0 00-.586.586.589.589 0 00.586.587zM9.63 27.794a.59.59 0 00-.586.586.59.59 0 00.586.586.59.59 0 00.586-.586.59.59 0 00-.586-.585z"/></g><defs><clipPath id="clip0"><path fill="#fff" d="M0 0h30v30H0z"/></clipPath></defs></svg>
